X:1
T:Nun komm, der Heiden Heiland
T:Michael Praetorius
T:UA
T:Chor 1
T:Chor 1
T:Michael Praetorius: Nun komm, der Heiden Heiland
T:#
%%score [ 1 2 3 4 ]
L:1/8
M:4/2
K:F
V:1 treble nm="Cantus 1"
V:2 treble nm="Altus 1"
V:3 treble-8 nm="Tenor 1"
V:4 bass nm="Bassus 1"
V:1
{!stemless![Df]} G8 G8 | F8 B8 | A4 G8 ^F4 | G8 z8 |"^5" G8 G8 | z8 d8 | d8 z8 | z8 z4 G4 | %8
w: Nun komm,|der Hei-|den * Hei-|land,|nun komm,|nun|komm,|nun|
 G4 F4 B4 A2 G2 |"^10" A4 G4 z4 z2 F2 | B4 A2 G2 A4 G4 | z8 z2 d2 d2 c2 | %12
w: komm, der Hei- den *|Hei- land, der|Hei- den * Hei- land,|nun komm, der|
 f2 ed e2 d2[K:treble] e4 d4 | z8"^15" z2 A2 B2 AG | A2 G2 A4 G8 | z4 G4 d4 G4 | %16
w: Hei * * * den Hei- land,|der Hei * *|* den Hei- land,|nun komm, der|
 A6 A2[K:treble] d8 | c4 Bc d2 d8 | z8"^20" z4 G8 | z4 B4 c8 | B8[K:treble] z8 | G4 B4 c4 B4 | %22
w: Hei- den Hei-|* * * * land,|der|Jung- frau-|en,|der Jung- frau- en|
 c4 d4"^24" B8 | z8 z16 | z8 z16 | z8 z16 | z8 B8 | c8[K:treble] d4 B4 | z8"^30" F4 G4 | %29
w: Kind er- kannt,||||daß|sich wun- dert,|daß sich|
 A2 F2 z4 z8 | z8 F4 G4 |"^33" A2 F2 G4 F2 E2 D4 | z16 | z16 |"^36" B4 c4 d2 B2 z4 | %35
w: wun- dert,|daß sich|wun- dert al- le * Welt,|||daß sich wun- dert,|
 B4 c4 d2 B2 c2 A2 | G8 z4 F2 G2 | A4 A4 F6 G2 |"^40" A4 A4 G8 | ^F8 G8 | z16 | z16 | z8 z4 G4 | %43
w: daß sich wun- dert al- le|Welt, daß sich|wun- dert, daß sich|wun- dert al-|le Welt,|||Gott|
"^45" G4 F4 B4 z4 | z4 d4 d4 c4 | f8 z8 | z8[K:treble] z2 d2 d2 c2 | f8"^50" e2 d2 d8 | z4 ^c4 d8 | %49
w: solch Ge- burt,|Gott solch Ge-|burt,|Gott solch Ge-|burt ihm * *|be- stellt,|
 z8 z4 B4 | c8[K:treble] d4 B4 | z8 z8 |"^55" B2 c2 d2 B2 _e2 d2 c3 B | A8 B2 c2 d2 B2 | %54
w: daß|sich wun- dert,||daß sich wun- dert al- * \- le|Welt, daß sich wun- dert|
 G4 c4 F2 G2 A2 A2 | D8 z8 | z8 |"^60" c2 A2 G4 z4 d4- | d2 cB A2 A2 G8 | z8 d6 cB | %60
w: al- le, al- * \- le|Welt,||al- le Welt, al-|\- * * * le Welt,|al- * *|
 AG G4 ^F2 G4 z4 | z8 z4 G4 |"^65" G8 F8 | B8 A4 G4 | A8- A8 | G8 | z8 |] %67
w: * * * le Welt,|Gott|solch Ge-|burt ihm *|be- *|stellt.||
V:2
{!stemless![G,A]} D8 D8 | D8 F8 | _E8 D8 | D8 z8 | D8 _E8 | z8 A8 | G8 z8 | z8 z4 D4 | %8
w: Nun komm,|der Hei-|den Hei-|land,|nun komm,|nun|komm,|nun|
 _E4 D4 F6 D2 | D4 D4 z4 z2 D2- | D2 G2 FE D2 D4 D4 | z8 z2 ^F2 G2 E2 | A4 G4[K:treble] E4 A4 | %13
w: komm, der Hei- den|Hei- land, der|\_\_ Hei- * * den Hei- land,|nun komm, der|Hei- den Hei- land,|
 z8 D8 | E2 G2 ^F4 D8 | z4 D4- D4 D8 | z4 D4[K:treble] F6 F2 | F2 C2"^." G4- G2 ^FE F4 | G8 z4 D8 | %19
w: der|Hei- den Hei- land,|nun * komm,|der Hei- den|Hei * * * * * *|land, der|
 z4 D4 F2 G2 A4 | G8[K:treble] z8 | D4 D4 F4 D4 | G4 ^F4 G8 | z8 z16 | z8 z16 | z8 z16 | z8 F12 | %27
w: Jung- frau \- *|en,|der Jung- frau- en|Kind er- kannt,||||daß|
 z4 F4[K:treble] F4 D4 | z8 D6 E2 | F2 C2 z4 z8 | z8 D4 G,4 | C2 D4 D4 ^C2 D4 | z16 | z16 | %34
w: sich wun- dert,|daß sich|wun- dert,|daß sich|wun- dert al- le Welt,|||
 G4 F2 E2 D4 z4 | G4 E4 F2 D2 _E2 D2 | D8 z4 D4 | F8 D8 | C2 F4 F2 B,C D4 D2 | D8 z16 | z8 z16 | %41
w: daß sich wun- dert,|daß sich wun- dert al- le|Welt, daß|sich wun-|dert al- le Welt, * al- le|Welt,||
 z16 | z8 z4 D4 | _E4 D4 D4 z4 | z4 G4 F3 G A2 A2 | A8 z8 | z8[K:treble] z2 ^F2 G2 E2 | %47
w: |Gott|solch Ge- burt,|Gott solch * * Ge-|burt,|Gott solch Ge-|
 A8 G2 F2 D2 E2 | F4 E4 D8 | z8 z4 D4 | _E4 C4[K:treble] F8 | z8 z8 | F4 D4 G3 F E2 E2 | %53
w: burt ihm * * *|* be- stellt,|daß|sich wun- dert,||daß sich wun- * \- dert|
 F2 E2 D4 D2 E2 F2 D2 | E2 F2 G2 A3 G G4 ^F2 | G8 z8 | z8 | E2 D2 D4 z4 D4- | D4 D4 =B,4 z4 | %59
w: al- le Welt, daß sich wun- dert|al \- le, al \- * le|Welt,||al- le Welt, al-|\-- le Welt,|
 z8 G2 FE D2 E2 | F2 E2 D2 D2 D4 z4 | z8 z4 D4 | _E8 D8- | D8 F4"^." F4- | F2 C2 G8 ^F2 E2 | %65
w: al * * * \-|\- * * le Welt,|Gott|solch Ge-|* burt ihm||
 ^F4 F4 | G8 |] %67
w: * be-|stellt.|
V:3
{!stemless![De]} G8 B8 | A8 d8 | c4 B4 A8 | =B8 z8 | B8 c8 | z8 A8 | B8 z8 | z8 z4 B4 | %8
w: Nun komm,|der Hei-|den * Hei-|land,|nun komm,|nun|komm,|nun|
 c3 B A4 d4 c2 B2 | F4 G4 z4 z2 A2 | BcdG c2 B2 AG ^F2 G4 | z8 z2 A2 B2 c2 | %12
w: komm, * * der Hei- den|Hei- land, der|Hei * * \- * den Hei \- * land,|nun komm, der|
 c4 Bc d2[K:treble-8] ^c4 d4 | z8 z2 d2 d2 cB | c4 A2 d2 B8 | z4 d4 B6 B2 | A8[K:treble-8] B4 z4 | %17
w: Hei- den * * Hei- land,|der Hei- * *|* den Hei- land,|nun komm, der|Hei- den,|
 A4 B2 B2 A8 | =B8 z4 G2 A2 | B6 B2 A8 | d8[K:treble-8] z8 | B6 G2 c2 A2 dcBA | G4 A4 G8 | z8 z16 | %24
w: der Hei- den Hei-|land, der *|* Jung- frau-|en,|der Jung- frau- en Kind * * *|* er- kannt,||
 z8 z16 | z8 z16 | z8 B12 | z4 A4[K:treble-8] B4 F4 | z8 B6 c2 | c2 A2 z4 z8 | z8 A4 c4 | %31
w: ||daß|sich wun- dert,|daß sich|wun- dert,|daß sich|
 A4 B4 A2 A2 F4 | z16 | z16 | d2 d2 c4 G4 z4 | d4 c4 A2 B2 G2 ^F2 | G8 z4 B4 | A8 B4"^." F4- | %38
w: wun- dert al- le Welt,|||daß sich wun- dert,|daß sich wun- dert al- le|Welt, daß|sich wun- dert|
 F2 c4 c2 G4 D3 E | ^F2 G2 A2 A2 =B8 | z16 | z16 | z8 z4 =B4 | c4 A4 G4 z4 | z2 B4 AB c2 d2 e2 e2 | %45
w: * al- le Welt, al- *|* * * le Welt,|||Gott|solch Ge- burt,|Gott solch * * * * Ge-|
 d8 z8 | z8[K:treble-8] z2 A2 B2 c2 | c8 B8 | c2 d2 e2 A2 A8 | z8 z4 B8 | z4 A4[K:treble-8] B4 F4 | %51
w: burt,|Gott solch Ge-|burt ihm|be * * \- stellt,|daß|sich wun- dert,|
 z8 z8 | d2 c2 B4 G8 | F2 G2 A2 F2 B2 G2 F4 | c2 d2 e2 c2 d4 c4 | B8 z8 | z8 | G2 ^F2 B4 z4 d2 cB | %58
w: |daß sich wun- dert,|daß sich wun- dert al- le Welt,|al * * * * le|Welt,||al- le Welt, al * *|
 A2 G4 ^F2 G8 | z8 d2 cB A2 A2 | G4 z4 z8 | z8 z4 =B4 | c8 B8 | A8 B6 d2 | A4 B4 A4 A4- | A4 A4 | %66
w: \- * le Welt,|al- * \- * le|Welt,|Gott|solch Ge-|burt, Gott *|solch Ge- burt ihm|* be-|
 =B8 |] %67
w: stellt.|
V:4
{!stemless![F,,B,]} G,,8 G,8 | D,8 B,,8 | C,8 D,8 | G,,8 z8 | G,,8 C,8 | z8 D,8 | G,8 z8 | %7
w: Nun komm,|der Hei-|den Hei-|land,|nun komm,|nun|komm,|
 z8 z4 G,,4 | C,4 D,4 B,,C,D,E, F,2 G,2 | D,4 G,,4 z4 z2 D,2 | G,F,D,E, F,2 G,2 D,4 G,,4 | %11
w: nun|komm, der Hei * * * * den|Hei- land, der|Hei * * \- * den Hei- land,|
 z8 z2 D,2 G,2 A,2 | F,4 G,A, B,2[K:bass] A,4 D,4 | z8 z2 D,2 G,4 | C,D, _E,2 D,4 G,8 | %15
w: nun komm, der|Hei- den * * Hei- land,|der Hei-|den * * Hei- land,|
 z4 G,4 G,8 | D,8-[K:bass] D,4 F,8 | z4 D,4 D,8 | G,8 z4 G,8 | z4 G,4 F,8 | G,8[K:bass] z8 | %21
w: nun komm,|der \_\_ Hei-|den Hei-|land, der|Jung- frau-|en,|
 G,4 G,4 A,2 F,2 G,3 F, | _E,4 D,4 G,,8 | z8 z16 | z8 z16 | z8 z16 | z8 B,,4 B,,4 | %27
w: der Jung- frau- en Kind *|* er- kannt,||||daß sich|
 F,8[K:bass] B,,8 | z8 B,,4 G,,2 C,2 | F,,4 z4 z8 | z8 D,4 E,4 | %31
w: wun- dert,|daß sich wun-|dert,|daß sich|
 F,E,D,C, B,,2 G,,2 A,,2 A,,2 B,,4 | z16 | z16 | G,4 A,4 B,2 G,2 z4 | G,4 A,4 F,2 G,2 C,2 D,2 | %36
w: wun * * * * dert al- le Welt,|||daß sich wun- dert,|daß sich wun- dert al- le|
 G,,8 z4 B,,4 | F,8 B,,4 B,,4 | F,8 D,8- | D,8 G,,8 | z16 | z16 | z8 z4 G,4 | C,4 D,4 G,,4 z4 | %44
w: Welt, daß|sich wun- dert|al- le|* Welt,|||Gott|solch Ge- burt,|
 z4 G,4 A,4 A,4 | D,8 z8 | z8[K:bass] z2 D,2 G,2 A,2 | F,8 G,8 | A,8 D,8 | z8 z4 G,2 F,2 | %50
w: Gott solch Ge-|burt,|Gott solch Ge-|burt ihm|be- stellt,|daß *|
 _E,4 F,4[K:bass] B,,4 B,,4 | z8 z8 | B,,8 C,8 | D,8 B,,8 | C,8 B,,4 A,,4 | G,,8 z8 | z8 | %57
w: * sich wun- dert,||daß sich|wun- dert|al- * le|Welt,||
 C,2 D,2 G,,4 z4 D,4- | D,4 D,4 G,,8 | z8"^." D,8- | D,4 D,4 G,,4 z4 | z8 z4 G,,4 | C,8 G,,8 | %63
w: al- le Welt, al-|\-- le Welt,|al-|* le Welt,|Gott|solch Ge-|
 D,12 F,4- | F,4 D,4 D,8- | D,8 | G,8 |] %67
w: burt ihm|* * be-||stellt.|

